public/static/img/trade/cancel.svg

<svg width="20" height="20" viewBox="0 0 20 20" fill="none" xmlns="http://www.w3.org/2000/svg">
<g id="Frame">
<path id="Vector" d="M9.90491 2C9.80915 1.99996 9.7168 2.03561 9.64591 2.1L2.12591 8.941C2.05705 9.00426 2.01321 9.09016 2.00238 9.18304C1.99155 9.27592 2.01445 9.36959 2.06691 9.447L2.09891 9.488C2.10491 9.49467 4.62091 11.7843 9.64691 16.357C9.68433 16.3911 9.72813 16.4174 9.77577 16.4345C9.82342 16.4516 9.87397 16.4591 9.92453 16.4566C9.97509 16.4541 10.0246 16.4416 10.0704 16.4199C10.1161 16.3982 10.157 16.3676 10.1909 16.33C10.2552 16.2586 10.2908 16.166 10.2909 16.07V12.101C10.6438 12.1096 10.9957 12.143 11.3439 12.201L11.4439 12.219C14.2909 12.739 16.5799 14.388 17.3439 17.159L17.4019 17.033C17.7689 16.2107 17.9727 15.325 18.0019 14.425C18.008 12.3381 17.2107 10.329 15.7755 8.81406C14.3402 7.29912 12.377 6.39459 10.2929 6.288V2.388C10.293 2.33718 10.2832 2.28683 10.2638 2.23983C10.2445 2.19282 10.2161 2.15009 10.1803 2.11406C10.1444 2.07803 10.1018 2.04941 10.0549 2.02984C10.008 2.01027 9.95773 2.00013 9.90691 2H9.90491ZM8.87891 4.707V7.637L10.2239 7.701C11.7132 7.77659 13.1348 8.34687 14.2634 9.32155C15.392 10.2962 16.1633 11.6196 16.4549 13.082C15.1111 11.8973 13.4595 11.1169 11.6909 10.831L11.5779 10.811C11.1639 10.7416 10.7456 10.7015 10.3259 10.691L8.87891 10.654V13.754L3.90891 9.232L8.87891 4.711V4.707Z" fill="#0E0F18"/>
</g>
</svg>

<svg width="20" height="20" fill="none" xmlns="http://www.w3.org/2000/svg"><path d="M9.905 2a.385.385 0 0 0-.26.1l-7.52 6.841a.39.39 0 0 0-.058.506l.032.041c.006.007 2.522 2.296 7.548 6.869a.384.384 0 0 0 .544-.027.39.39 0 0 0 .1-.26v-3.969c.353.009.705.042 1.053.1l.1.018c2.847.52 5.136 2.169 5.9 4.94l.058-.126c.367-.822.57-1.708.6-2.608a8.124 8.124 0 0 0-7.71-8.137v-3.9A.386.386 0 0 0 9.908 2h-.002ZM8.879 4.707v2.93l1.345.064a6.7 6.7 0 0 1 6.23 5.381 9.495 9.495 0 0 0-4.763-2.251l-.113-.02a8.922 8.922 0 0 0-1.252-.12l-1.447-.037v3.1l-4.97-4.522 4.97-4.521v-.004Z" fill="#0E0F18"/></svg>
